X: 37521
T: Slippery Jig
R: slip jig
M: 9/8
K: Eminor
E3 GFE AGF|E3 GFE FGF|E3 GFE AGF|BAB d2e BAG|
E3 GFE AGF|E3 GFE FGF|E3 GFE AGF|BAB d2B gfd|
efe gfe dBd|efe bag fed|efe gfe dBd|e2d B2A Bdf|
efe gfe dBd|efe bag fed|efe gfe dBd|cBA BAG AGF|

